X: 19
T: Evil Diane
C: by Sam Bartlett
R: reel
B: Portland Collection v._
Z: 2012 John Chambers <jc:trillian.mit.edu>
M: C|
L: 1/8
K: A
"E7"e{f}g | "A"aeea fedc | "D"decd "(A)"BcAG | "E7"EDEF GABG |1,3 "A"AGAB cd :|2,4 "(A)"AG"(E7)"EG "A"A2 :|
z2 |: "E7"E"#"DEE GABc | d2EF GABc | "(D)"d2cd B2"#"AB |1,3 "E7"GBAB GBAG :|2,4 "E7"GDEG "A"A2 :|

%%sep 1 1 500

